X: 109
T: When a Horse Neighs
C: Teton Sioux band 1911-1914
N: Derived from sioux109.krn
O: South Dakota, U.S.A.
N: Teton Sioux Music by Frances Densmore, 1918
Z: transcribed to **kern format by Craig Sapp
L: 1/8
M: 3/4
Q: 1/4=58
K: C clef=bass
%%linebreak <none>
E> EE2D D [I:setbarnb 2]| 
D D C A, A, A, | 
A,6 ||  
[M:2/4]A,2 ]|:  
A,/ A,/ A, [I:setbarnb 5]| 
C C C/ C3/ | 
C2A,3/ E/ | 
D> D D3/ D/ | 
E< D C C | 
C (3D/ C/ C/ A, A, ||  
[M:3/4]A,6 ||  
[M:2/4]E,< E, E, E,- | 
E,2D, D, | 
(5:4:5D,/ D,/ E,/ D,/ D,/ C, C, | 
C,2)A,,3/ E,/ | 
D,> D,E,2 | 
D,< D,-D,2 | 
(5:4:5C,/ C,/ D,/ C,/ C,/ A,,3/ A,,/ | 
A,,4 | 
A,,2 :|]  



